X:1
T:Norway
T:A minor         Hezekiah Moors, 1809
T:Transcribed from Province Harmony, 1809.
T:John Leland, 1792                  66. 86. (S. M.)
%%score [ 1 2 3 4 ]
L:1/8
Q:1/4=120
M:4/4
K:C
V:1 treble nm="Tr." snm="Tr."
V:2 treble nm="C." snm="C."
V:3 treble-8 nm="T." snm="T."
V:4 bass nm="B." snm="B."
V:1
 A8 | A2 B2 c2 A2 | B4 ^G4 | E2 c2 BA ^G2 | A6 z2 |: z8 | z4 z2 c2 | e2 e2 e2 c2 | B2 d2 d2 ed | %9
w: 1. The|day is past and|gone, The|eve- ning shades * ap-|pear,||O|may we all re-|mem- ber well The *|
w: 2. I|lay my gar- ments|by, Up-|on my bed * to|rest;||So|death will soon re-|move me hence, And *|
w: 3. Lord,|keep me safe this|night, Se-|cure from all * my|fears;||May|an- gels guard me|while I sleep, Till *|
w: 4. And|when I ear- ly|rise, To|view th'un- wea- * ried|sun,||May|I set out to|win the prize, And *|
w: 5. That|when my days are|past, And|I from time * re-|move,||Lord,|I may in thy|bo- som rest, The *|
 (c4 B2 ^G2 | A3) d c2 B2 |1 A6 z2 :|2 A8 |] %13
w: night  _ _|_ of death is|near.||
w: leave  _ _|_ my soul un-|dressed.||
w: mor- * *|* ning light ap-|pears.||
w: af- * *|* ter glo- ry|run.||
w: bo- * *|* som of thy|love.||
V:2
 E8 | E2 E2 E2 E2 | E4 E4 | E2 E2 F2 E2 | E6 z2 |: z8 | z8 | z4 z2 E2 | G2 G2 G2 G2 | %9
w: |||||||O|may we all re-|
w: |||||||So|death will soon re-|
w: |||||||May|an- gels guard me|
w: |||||||May|I set out to|
w: |||||||Lord,|I may in thy|
 A2 A2 ^G2 E2 | E3 F E2 E2 |1 E6 z2 :|2 E8 |] %13
w: mem- ber well The|night of death is|near.||
w: move me hence, And|leave my soul un-|dressed.||
w: while I sleep, Till|mor- ning light ap-|pears.||
w: win the prize, And|af- ter glo- ry|run.||
w: bo- som rest, The|bo- som of thy|love.||
V:3
 A8 | c2 B2 A2 c2 | B4 B4 | c2 e2 dc B2 | A6 z2 |: z4 z2 F2 | A2 A2 A2 c2 | B2 B2 B2 c2 | %8
w: 1. The|day is past and|gone, The|eve- ning shades * ap-|pear,|O|may we all re-|mem- ber well The|
w: 2. I|lay my gar- ments|by, Up-|on my bed * to|rest;|So|death will soon re-|move me hence, And|
w: 3. Lord,|keep me safe this|night, Se-|cure from all * my|fears;|May|an- gels guard me|while I sleep, Till|
w: 4. And|when I ear- ly|rise, To|view th'un- wea- * ried|sun,|May|I set out to|win the prize, And|
w: 5. That|when my days are|past, And|I from time * re-|move,|Lord,|I may in thy|bo- som rest, The|
 d2 d2 d2 cd | e6 B2 | c3 B A2 ^G2 |1 A6 z2 :|2 A8 |] %13
w: night of death is *|near, The|night of death is|near.||
w: leave my soul un- *|dressed, And|leave my soul un-|dressed.||
w: mor- ning light ap- *|pears, Till|mor- ning light ap-|pears,||
w: af- ter glo- ry *|run, And|af- ter glo- ry|run.||
w: bo- som of thy *|love, The|bo- som of thy|love.||
V:4
 A,8 | A,2 ^G,2 A,2 A,2 | E,4 E,4 | C,2 C,2 D,2 E,2 | A,,6 A,,2 |: E,2 E,2 E,2 C,2 | %6
w: ||||* 1. O|may we all re-|
w: ||||* 2. So|death will soon re-|
w: ||||* 3. May|an- gels guard me|
w: ||||* 4. May|I set out to|
w: ||||* 5. Lord,|I may in thy|
 A,,2 A,,2 A,,2 A,,2 | E,6 C,2 | G,6 CB, | A,2 A,2 E,2 E,2 | C,3 D, E,2 E,2 |1 A,,6 A,,2 :|2 %12
w: mem- ber well, O|may we|all re- *|mem- ber well The|night of death is|near. O|
w: move me hence, So|death will|soon re- *|move me hence, And|leave my soul un-|dressed. So|
w: while I sleep, May|an- gels|guard me *|while I sleep, Till|mor- ning light ap-|pears. May|
w: win the prize, May|I set|out to *|win the prize, And|af- ter glo- ry|run. May|
w: bo- som rest, Lord,|I may|in thy *|bo- som rest, The|bo- som of thy|love. Lord,|
 A,,8 |] %13
w: |
w: |
w: |
w: |
w: |

